X:1
T:Come Over and Help Us
T:Come Over and Help Us
T:A. F. Myers
T:A. F. Myers, 1897
T:Public Domain Courtesy of the Cyber Hymnal™
T:Public Domain Courtesy of the Cyber Hymnal™
C:A. F. Myers
Z:Public Domain
Z:Courtesy of the Cyber Hymnal™
%%score ( 1 2 ) ( 3 4 )
L:1/8
M:6/8
K:D
V:1 treble 
V:2 treble 
V:3 bass 
V:4 bass 
V:1
 [FA] | [FA]2 [DF] D2 [GB] | [FA] [DF]2- [DF]2 [FA] | [FA]2 [CG] [DF]2 [CE] | [DF]3- [DF]2 [FA] | %5
w: 1.~A|voice comes o’er the|wa- ters, * A|voice both loud and|clear, * “Come|
w: 2.~Our|i- dols can- not|help us; * We|on- ly deep- er|fall; * And|
w: 3.~We|hear that o’er the|wa- ters * A|glo- rious light doth|shine, * A|
 [FA]2 [DF] D2 [GB] | [FA] [DF]2- [DF]2 [DF] | [CE]2 [CA] [Ec]2 [DB] | [CA]3- [CA]2 [GA] | %9
w: o- ver here and|help us, * We’re|bound in slav- ish|fear! * Our|
w: dim- mer grows our|vi- sion, * When|on their names we|call, * We|
w: light set down from|Heav- en, * Oh,|send that light di-|vine! * We|
 [GA]2 [GB] [Gc]2 [GB] | [FA] [Fd]2- [Fd]2 [Fd] | [Gd]2 [Gd] [GB]2 [Gd] | [FA]3- [FA]2 [FA] | %13
w: chains do now con-|fine us * In|dark- ness and in|doubt, * No|
w: look and wait and|won- der * If|some- one o’er the|sea * Will|
w: hear that one called|Je- sus * Can|save us from our|sin; * We|
 [GB]2 [GB] [Gd]2 [GB] | [FA] [DF]2- [DF]2 [DF] | [CA]2 [EG] [DF]2 [CE] | D3- D2 || %17
w: light to shine up-|on us, * No|hand to bring us|out. *|
w: hast- en to re-|lieve us, * Will|come and set us|free. *|
w: want to hear his|foot- steps, * We|want to let Him|in. *|
"^Refrain" [FA] | [Fd]3- [Fd][Gc][GB] | [FA]3 [DF]2 [DF] | [EG]3- [EG][FA][GB] | [GB]3 [FA]2 [FA] | %22
w: Come|o- * ver and|help us! Come|o- * ver and|help us! Come|
w: |||||
w: |||||
 [Fd]3- [Fd][Gc][GB] | [FA]3 [DF]2 [DF] | [CE][DF][EG] [FA][GB][Gc] | [Fd]3- [Fd]2 |] %26
w: o- * ver and|help us! Come|o- ver and help us to-|day. *|
w: ||||
w: ||||
V:2
 x | x3 D2 x | x6 | x6 | x6 | x3 D2 x | x6 | x6 | x6 | x6 | x6 | x6 | x6 | x6 | x6 | x6 | D3- D2 || %17
 x | x6 | x6 | x6 | x6 | x6 | x6 | x6 | x5 |] %26
V:3
 [D,D] | [D,D]2 [D,A,] [D,F,]2 [D,D] | [D,D] [D,A,]2- [D,A,]2 [D,D] | [D,D]2 [E,A,] A,2 [A,,A,] | %4
w: ~|~ ~ ~ ~|~ ~ * ~|~ ~ ~ ~|
 [D,A,]3- [D,A,]2 [D,D] | [D,D]2 [D,A,] [D,F,]2 [D,D] | [D,D] [D,A,]2- [D,A,]2 [D,A,] | %7
w: ~ * ~|~ ~ ~ ~|~ ~ * ~|
 [E,A,]2 [E,A,] [E,A,]2 [E,^G,] | A,3- A,2 [A,C] | [A,,C]2 [A,,A,] [A,,A,]2 [A,,A,] | %10
w: ~ ~ ~ ~|~ * ~|~ ~ ~ ~|
 [D,A,] [D,A,]2- [D,A,]2 [D,A,] | [G,B,]2 [G,B,] [G,D]2 [G,B,] | [D,D]3- [D,D]2 [D,D] | %13
w: ~ ~ * ~|~ ~ ~ ~|~ * ~|
 [G,D]2 [G,D] [G,B,]2 [G,D] | [D,D] [D,A,]2- [D,A,]2 [D,A,] | [A,,A,]2 [A,,A,] [A,,A,]2 [A,,A,] | %16
w: ~ ~ ~ ~|~ ~ * ~|~ ~ ~ ~|
 [D,F,]3- [D,F,]2 || [D,D] | [D,A,][D,A,][D,A,] [D,A,][D,B,][D,D] | [D,D]3 [D,A,]2 [D,A,] | %20
w: ~ *|Come|o- ver, yes, o- ver and|help us! Come|
 [A,,A,][A,,A,][A,,A,] [A,,A,][A,,A,][A,,A,] | [D,A,][D,A,][D,A,] [D,D][D,D][D,D] | %22
w: o- ver and help us! Come|o- ver and help us! Come|
 [D,A,][D,A,][D,A,] [D,A,][D,D][D,D] | [D,D]3 [D,A,]2 [D,A,] | %24
w: o- ver and help us! Come|help us, come|
 [A,,A,][A,,A,][A,,A,] [A,,A,][A,,A,][A,,A,] | [D,A,]3- [D,A,]2 |] %26
w: o- ver and help us to-|day. *|
V:4
 x | x6 | x6 | x3 A,2 x | x6 | x6 | x6 | x6 | A,3- A,2 x | x6 | x6 | x6 | x6 | x6 | x6 | x6 | x5 || %17
 x | x6 | x6 | x6 | x6 | x6 | x6 | x6 | x5 |] %26

